svg/u1f36d.svg

<svg viewBox="0 0 128 128" xmlns="http://www.w3.org/2000/svg">
  <path d="M61,97.49c0,0-7.74,2.43-20.13-0.47C28.49,94.12,11.49,83.18,7,62.88s3.61-43.8,26.23-54.67 s43.25,2.22,43.25,2.22l10.08,7.24l6.47,10.9l3.07,10.56L95.3,53.55l-4.98,12.72l-7.38,9.2l-13.29,9.54L61,97.49z" fill="#4BDDFF"/>
  <path d="M61.44,4.22c-0.56,0.08-0.24,0.87,0.39,1.03S67.2,6.2,71.7,8.49c4.5,2.29,14.02,9.57,17.54,17 c5.25,11.07,5.5,20.18,2.52,31.6c-2.38,9.13-12.12,27.81-36.02,26.98C32.25,83.26,21.04,59.31,26,44.66 c4.94-14.6,15.45-23.18,30.25-20.96c16.86,2.53,22.09,16.82,19.2,26.86C72.56,60.6,61.2,69.6,49.97,63.86 c-10-5.11-7.84-16.28-4.88-19.23c3.17-3.15,8.64-5.12,12.66-0.98c3.56,3.66,1.47,7.67-0.25,8.79c-1.54,1-1.88,0-1.88,1.13 S57,57.59,57,57.59l5.65-1.51l4.39-7.78l-0.88-13.05l-17.7-0.38l-11.8,4.39l-3.64,18.07l10.67,14.31l14.56,2.38l14.93-5.4L81.6,55.7 l0.5-23.22L71.68,22.45l-16.82-7.66l-15.69,2.89L19.6,33.99l-3.01,27.86L27.25,78.8l14.93,11.04l25.6,4.27l21.84-17.32l8.53-15.69 l1.26-10.67c0,0,0-8.79-0.88-13.66c-0.89-4.87-6.75-14.66-12.4-20.59C77.13,6.74,62.94,4,61.44,4.22z" fill="#FFF11B"/>
  <path d="M98.97,37.45c-0.37-0.71-0.79-0.79-0.66,0.2c0.13,0.99,0.62,10.82-1.2,19.24 C94.89,67.2,83.83,89.45,56.86,88.85c-26.98-0.6-38.24-24.73-36.6-39.61c1.49-13.52,8.3-24.86,24.68-29.74 c17.36-5.16,36.8,8.86,35.29,26.64c-1.49,17.59-18.07,30.25-33.36,21.34c-16.49-9.6-7.74-31.94,6.13-30.58 c11.42,1.12,10.83,10.93,10.17,13.45c-1.11,4.29-4.58,4.45-4.58,4.45l6.89-0.94l2.21-10.93l-2.51-9.03l-11.33-4.41l-12.43,3.31 l-9.13,11.63l-1.7,12.33l7.12,12.43l7.22,5.92l14.84,2.21l13.84-5.72l9.23-10.83l4.51-15.94l-3.11-12.64l-5.42-8.42l-9.43-7.82 l-20.16-5.72l-19.15,6.12L17.55,32.09l-5.01,23.37l5.21,18.05l9.43,11.63l16.65,8.92l20.86,1l16.85-7.32c0,0,12.06-13.21,14.16-15.9 c2.1-2.69,5.29-12.02,5.29-20.59C100.98,43.77,99.48,38.43,98.97,37.45z" fill="#FDB3D1"/>
  <path d="M94.81,73.77c0.34-0.65,1.22-2.08,0.83-2.24c-0.39-0.17-2.85,3.61-5.23,6.07 c-3,3.1-9.67,12.99-28.64,15.43c-18.97,2.45-32.76-8.33-39.78-18.45c-5.75-8.29-14.16-32.15,5.09-49.88 c22.47-20.68,48.21-7.02,54.78,6.77c5.39,11.32,2.87,33.67-14.89,41.21c-20.71,8.79-33.19-9.22-33.07-19.38 c0.15-12.78,9.31-21.72,19.17-20.71c14.55,1.5,13.31,14.55,11.49,17.76c-1.91,3.37-5.22,5.07-8.12,3.3 c-1.56-0.95,0.38-6.09-3.17-6.98s-7.05,1.06-5.39,7.27c1.39,5.2,6.56,6.36,9.41,6.32c3.86-0.06,14.81-2.42,13.74-17.14 c-1.1-15.26-20.93-20.39-32.73-10.49s-13.45,30.16,1.9,41.58S80.12,78.6,87.23,56.9s-5.24-45.88-32.9-47.91s-45.02,23-43.9,45.11 c0.97,19.27,12.52,35.21,32.31,41.55s33.32-1.97,35.9-3.68c4.6-3.05,10.59-10.01,13.02-13.45C93.15,76.43,94.48,74.41,94.81,73.77z" fill="#FF2D8A"/>
  <path d="M85.59,80.61l-5.95,5.49c0,0,33.32,35.56,34.4,36.57c1.08,1.01,2.78,2.16,4.33,1.78 c1.55-0.39,2.47-1.31,2.47-1.31l-10.21-11.83l-20.1-25.82L85.59,80.61z" fill="#F4B043"/>
  <path d="M87.57,89.1l2.97-3.62c0,0,29.33,30.83,30.1,31.45c0.77,0.62,1.82,2.54,1.62,3.93 c-0.23,1.62-1.23,2.7-1.23,2.7L87.57,89.1z" fill="#F5C977"/>
  <path d="M25.52,16.89c-7.47,6.31-13.86,16.45-11.18,18.15c2.88,1.84,6.02-7.3,14.05-14.19 c8.12-6.98,17.79-7.64,16.05-11.13C42.97,6.79,31.06,12.21,25.52,16.89z" fill="#FFFFFF"/>
  <path d="M14.34,37.34c-2.88-0.69-4.2,4.01-4.49,6.31c-0.24,1.93-0.19,5.69,1.91,5.92 c2.58,0.29,2.96-3.44,3.34-5.64C15.49,41.73,16.73,37.91,14.34,37.34z" fill="#FFFFFF"/>
</svg>

<svg viewBox="0 0 128 128" xmlns="http://www.w3.org/2000/svg">
  <defs/>
  <path d="M61,97.49 C61,97.49 53.26,99.92 40.87,97.02 C28.49,94.12 11.49,83.18 7,62.88 C2.51,42.58 10.61,19.08 33.23,8.21 C55.85,-2.66 76.48,10.43 76.48,10.43 L86.56,17.67 L93.03,28.57 L96.1,39.13 L95.3,53.55 L90.32,66.27 L82.94,75.47 L69.65,85.01 L61,97.49 Z" fill="#4BDDFF"/>
  <path d="M61.44,4.22 C60.88,4.3 61.2,5.09 61.83,5.25 C62.46,5.41 67.2,6.2 71.7,8.49 C76.2,10.78 85.72,18.06 89.24,25.49 C94.49,36.56 94.74,45.67 91.76,57.09 C89.38,66.22 79.64,84.9 55.74,84.07 C32.25,83.26 21.04,59.31 26,44.66 C30.94,30.06 41.45,21.48 56.25,23.7 C73.11,26.23 78.34,40.52 75.45,50.56 C72.56,60.6 61.2,69.6 49.97,63.86 C39.97,58.75 42.13,47.58 45.09,44.63 C48.26,41.48 53.73,39.51 57.75,43.65 C61.31,47.31 59.22,51.32 57.5,52.44 C55.96,53.44 55.62,52.44 55.62,53.57 C55.62,54.7 57,57.59 57,57.59 L62.65,56.08 L67.04,48.3 L66.16,35.25 L48.46,34.87 L36.66,39.26 L33.02,57.33 L43.69,71.64 L58.25,74.02 L73.18,68.62 L81.6,55.7 L82.1,32.48 L71.68,22.45 L54.86,14.79 L39.17,17.68 L19.6,33.99 L16.59,61.85 L27.25,78.8 L42.18,89.84 L67.78,94.11 L89.62,76.79 L98.15,61.1 L99.41,50.43 C99.41,50.43 99.41,41.64 98.53,36.77 C97.64,31.9 91.78,22.11 86.13,16.18 C77.13,6.74 62.94,4 61.44,4.22 Z" fill="#FFF11B"/>
  <path d="M98.97,37.45 C98.6,36.74 98.18,36.66 98.31,37.65 C98.44,38.64 98.93,48.47 97.11,56.89 C94.89,67.2 83.83,89.45 56.86,88.85 C29.88,88.25 18.62,64.12 20.26,49.24 C21.75,35.72 28.56,24.38 44.94,19.5 C62.3,14.34 81.74,28.36 80.23,46.14 C78.74,63.73 62.16,76.39 46.87,67.48 C30.38,57.88 39.13,35.54 53,36.9 C64.42,38.02 63.83,47.83 63.17,50.35 C62.06,54.64 58.59,54.8 58.59,54.8 L65.48,53.86 L67.69,42.93 L65.18,33.9 L53.85,29.49 L41.42,32.8 L32.29,44.43 L30.59,56.76 L37.71,69.19 L44.93,75.11 L59.77,77.32 L73.61,71.6 L82.84,60.77 L87.35,44.83 L84.24,32.19 L78.82,23.77 L69.39,15.95 L49.23,10.23 L30.08,16.35 L17.55,32.09 L12.54,55.46 L17.75,73.51 L27.18,85.14 L43.83,94.06 L64.69,95.06 L81.54,87.74 C81.54,87.74 93.6,74.53 95.7,71.84 C97.8,69.15 100.99,59.82 100.99,51.25 C100.98,43.77 99.48,38.43 98.97,37.45 Z" fill="#FDB3D1"/>
  <path d="M94.81,73.77 C95.15,73.12 96.03,71.69 95.64,71.53 C95.25,71.36 92.79,75.14 90.41,77.6 C87.41,80.7 80.74,90.59 61.77,93.03 C42.8,95.48 29.01,84.7 21.99,74.58 C16.24,66.29 7.83,42.43 27.08,24.7 C49.55,4.02 75.29,17.68 81.86,31.47 C87.25,42.79 84.73,65.14 66.97,72.68 C46.26,81.47 33.78,63.46 33.9,53.3 C34.05,40.52 43.21,31.58 53.07,32.59 C67.62,34.09 66.38,47.14 64.56,50.35 C62.65,53.72 59.34,55.42 56.44,53.65 C54.88,52.7 56.82,47.56 53.27,46.67 C49.72,45.78 46.22,47.73 47.88,53.94 C49.27,59.14 54.44,60.3 57.29,60.26 C61.15,60.2 72.1,57.84 71.03,43.12 C69.93,27.86 50.1,22.73 38.3,32.63 C26.5,42.53 24.85,62.79 40.2,74.21 C55.55,85.63 80.12,78.6 87.23,56.9 C94.34,35.2 81.99,11.02 54.33,8.99 C26.67,6.96 9.31,31.99 10.43,54.1 C11.4,73.37 22.95,89.31 42.74,95.65 C62.53,101.99 76.06,93.68 78.64,91.97 C83.24,88.92 89.23,81.96 91.66,78.52 C93.15,76.43 94.48,74.41 94.81,73.77 Z" fill="#FF2D8A"/>
  <path d="M85.59,80.61 L79.64,86.1 C79.64,86.1 112.96,121.66 114.04,122.67 C115.12,123.68 116.82,124.83 118.37,124.45 C119.92,124.06 120.84,123.14 120.84,123.14 L110.63,111.31 L90.53,85.49 L85.59,80.61 Z" fill="#F4B043"/>
  <path d="M87.57,89.1 L90.54,85.48 C90.54,85.48 119.87,116.31 120.64,116.93 C121.41,117.55 122.46,119.47 122.26,120.86 C122.03,122.48 121.03,123.56 121.03,123.56 L87.57,89.1 Z" fill="#F5C977"/>
  <path d="M25.52,16.89 C18.05,23.2 11.66,33.34 14.34,35.04 C17.22,36.88 20.36,27.74 28.39,20.85 C36.51,13.87 46.18,13.21 44.44,9.72 C42.97,6.79 31.06,12.21 25.52,16.89 Z" fill="#FFFFFF"/>
  <path d="M14.34,37.34 C11.46,36.65 10.14,41.35 9.85,43.65 C9.61,45.58 9.66,49.34 11.76,49.57 C14.34,49.86 14.72,46.13 15.1,43.93 C15.49,41.73 16.73,37.91 14.34,37.34 Z" fill="#FFFFFF"/>
</svg>
